icons/plexis/48/desktop-environment-mate.svg

<svg viewBox="0 0 48 48" xmlns="http://www.w3.org/2000/svg" xmlns:xlink="http://www.w3.org/1999/xlink">
  <linearGradient id="a" gradientTransform="matrix(0 -1 1 0 -.0000015 47.999998)" gradientUnits="userSpaceOnUse" x1="1" x2="47">
    <stop offset="0" stop-color="#a3ce30"/>
    <stop offset="1" stop-color="#abd240"/>
  </linearGradient>
  <path d="m47 24c0 22.703-.297 23-23 23-22.703 0-23-.297-23-23 0-22.703.297-23 23-23 22.703 0 23 .297 23 23z" fill="url(#a)"/>
  <path d="m25 13a12 12 0 0 0-9.711 4.975l1.721 1.031a10 10 0 0 1 7.99-4.006 10 10 0 0 1  10 10 10 10 0 0 1-10 10 10 10 0 0 1-7.99-4.004l-1.721 1.031a12 12 0 0 0 9.711 4.973 12 12 0 0 0  12-12 12 12 0 0 0-12-12m-12 5v14l12-7zm12 0a7 7 0 0 0-5.402 2.559l1.742 1.045a5 5 0 0 1 3.66-1.604 5 5 0 0 1  5 5 5 5 0 0 1-5 5 5 5 0 0 1-3.662-1.604l-1.742 1.047a7 7 0 0 0 5.404 2.557 7 7 0 0 0  7-7 7 7 0 0 0-7-7" opacity=".1"/>
  <path d="m24 12a12 12 0 0 0-9.711 4.975l1.721 1.035a10 10 0 0 1 7.99-4.01 10 10 0 0 1  10 10 10 10 0 0 1-10 10 10 10 0 0 1-7.99-4.004l-1.723 1.034a12 12 0 0 0 9.713 4.97 12 12 0 0 0  12-12 12 12 0 0 0-12-12zm-12 5v14l12-7zm12 0a7 7 0 0 0-5.402 2.559l1.742 1.045a5 5 0 0 1 3.66-1.604 5 5 0 0 1  5 5 5 5 0 0 1-5 5 5 5 0 0 1-3.662-1.604l-1.742 1.047a7 7 0 0 0 5.404 2.557 7 7 0 0 0  7-7 7 7 0 0 0-7-7z" fill="#f9f9f9"/>
</svg>

<svg xmlns="http://www.w3.org/2000/svg" viewBox="0 0 48 48">
 <defs>
  <linearGradient id="linearGradient3764" x1="1" x2="47" gradientUnits="userSpaceOnUse" gradientTransform="matrix(0,-1,1,0,-1.5e-6,47.999998)">
   <stop style="stop-color:#a3ce30;stop-opacity:1"/>
   <stop offset="1" style="stop-color:#abd240;stop-opacity:1"/>
  </linearGradient>
 </defs>
 <g>
  
  
  
 </g>
 <g>
  <path d="m 47,24 C 47,46.703 46.703,47 24,47 1.297,47 1,46.703 1,24 1,1.297 1.297,1 24,1 46.703,1 47,1.297 47,24 z" style="fill:url(#linearGradient3764);fill-opacity:1"/>
 </g>
 <g>
  <g>
   <g transform="translate(1,1)">
    <g style="opacity:0.1">
     <!-- color: #abd240 -->
    </g>
   </g>
  </g>
 </g>
 <path d="m 25 13 a 12 12 0 0 0 -9.711 4.975 l 1.721 1.031 A 10 10 0 0 1 25 15 10 10 0 0 1 35 25 10 10 0 0 1 25 35 10 10 0 0 1 17.01 30.996 l -1.721 1.031 A 12 12 0 0 0 25 37 12 12 0 0 0 37 25 12 12 0 0 0 25 13 m -12 5 0 14 12 -7 -12 -7 z m 12 0 a 7 7 0 0 0 -5.402 2.559 l 1.742 1.045 A 5 5 0 0 1 25 20 a 5 5 0 0 1 5 5 5 5 0 0 1 -5 5 5 5 0 0 1 -3.662 -1.604 l -1.742 1.047 A 7 7 0 0 0 25 32 7 7 0 0 0 32 25 7 7 0 0 0 25 18" style="fill:#000;opacity:0.1;fill-opacity:1;stroke:none"/>
 <path d="M 24 12 A 12 12 0 0 0 14.289 16.975 L 16.01 18.01 A 10 10 0 0 1 24 14 A 10 10 0 0 1 34 24 A 10 10 0 0 1 24 34 A 10 10 0 0 1 16.01 29.996 L 14.287 31.03 A 12 12 0 0 0 24 36 A 12 12 0 0 0 36 24 A 12 12 0 0 0 24 12 z M 12 17 L 12 31 L 24 24 L 12 17 z M 24 17 A 7 7 0 0 0 18.598 19.559 L 20.34 20.604 A 5 5 0 0 1 24 19 A 5 5 0 0 1 29 24 A 5 5 0 0 1 24 29 A 5 5 0 0 1 20.338 27.396 L 18.596 28.443 A 7 7 0 0 0 24 31 A 7 7 0 0 0 31 24 A 7 7 0 0 0 24 17 z" style="fill:#f9f9f9;opacity:1;fill-opacity:1;stroke:none"/>
 <g>
  <g>
   <!-- color: #abd240 -->
  </g>
 </g>
 <g>
  
 </g>
</svg>
